packages/tokens/icons/accessShared/size32Px.svg

<svg viewBox="0 0 32 32" fill="none" xmlns="http://www.w3.org/2000/svg" width="1em" height="1em"><path d="M12.5 25.5L12.5 24.5C12.5 21.7386 14.7386 19.5 17.5 19.5L24.5 19.5C27.2614 19.5 29.5 21.7386 29.5 24.5V25.5" stroke="currentColor" stroke-linecap="round"/><path d="M21 16.5C22.933 16.5 24.5 14.933 24.5 13C24.5 11.067 22.933 9.5 21 9.5C19.067 9.5 17.5 11.067 17.5 13C17.5 14.933 19.067 16.5 21 16.5Z" stroke="currentColor" stroke-linecap="round" stroke-linejoin="round"/><path d="M2.5 20.5V19.5C2.5 16.7386 4.73858 14.5 7.5 14.5L11.5 14.5" stroke="currentColor" stroke-linecap="round"/><path d="M9 11.5C10.3807 11.5 11.5 10.3807 11.5 9C11.5 7.61929 10.3807 6.5 9 6.5C7.61929 6.5 6.5 7.61929 6.5 9C6.5 10.3807 7.61929 11.5 9 11.5Z" stroke="currentColor" stroke-linecap="round" stroke-linejoin="round"/></svg>

<svg xmlns="http://www.w3.org/2000/svg" fill="none" viewBox="0 0 32 32" width="1em" height="1em"><path stroke="currentColor" stroke-linecap="round" d="M12.5 25.5v-1a5 5 0 0 1 5-5h7a5 5 0 0 1 5 5v1"/><path stroke="currentColor" stroke-linecap="round" stroke-linejoin="round" d="M21 16.5a3.5 3.5 0 1 0 0-7 3.5 3.5 0 0 0 0 7Z"/><path stroke="currentColor" stroke-linecap="round" d="M2.5 20.5v-1a5 5 0 0 1 5-5h4"/><path stroke="currentColor" stroke-linecap="round" stroke-linejoin="round" d="M9 11.5a2.5 2.5 0 1 0 0-5 2.5 2.5 0 0 0 0 5Z"/></svg>
